X: 07091
T: PASQUARELLO'S REEL
C: Bob McQuillen 28 May 90
B: Bob's Note Book 7 #91
%R: reel
Z: 2021 John Chambers <jc:trillian.mit.edu>
M: C
L: 1/8
K: D
AB \
| dBAG FDFA | BABc dAFA | GBAG FAde | fedf e2fe |\
| dBAG FDFA | BABc dAFA | GBAG FAdf | gece d2 :|
|: de \
| fdcd BdAG | FAdB AFEF | DFAB dfaf | edgf e2de |\
| fdcd BdAG | FAdB AFEF | DFAd fedB | AFEF D2 :|
%%begintext align
%% In Newtown, PA.,
%% there lives a man, Bob Pasquarello, who plays
%% wonderful piano with the SPUDS Band, composes
%% beautiful tunes, and is awfully nice to me whenever
%% our paths cross - so here's a little ditty for you, Bob,
%% which is sent with every good wish, and I hope it
%% sounds OK down Philly way.
%%endtext

%%sep 1 1 500

%%sep 1 1 500

